lambdarware/lambdarware_logo.svg

<svg xmlns="http://www.w3.org/2000/svg" width="2048" height="1788" viewBox="0 0 2048 1788">
  <g id="logo" fill="#333333" fill-rule="evenodd">
    <circle id="dot" cx="414.16" cy="174.35" r="173.77" />
    <path id="lambda" d="M 258.00,1756.50 L 9.00,1755.50 L 7.50,1751.00 L 232.50,1340.00 L 489.50,861.00 L 381.50,638.00 L 372.50,625.00 L 357.00,611.50 L 326.00,601.50 L 61.50,600.00 L 60.50,413.00 L 63.00,410.50 L 456.00,412.50 L 501.00,426.50 L 530.00,442.50 L 552.00,460.50 L 574.50,485.00 L 595.50,515.00 L 609.50,542.00 L 718.50,775.00 L 862.50,1069.00 L 1114.50,1574.00 L 1206.50,1752.00 L 1205.00,1755.50 L 926.00,1755.50 L 923.50,1753.00 L 608.00,1103.50 L 258.00,1756.50 Z" />
    <path id="R" d="M 2025.00,1755.50 L 1751.00,1755.50 L 1572.50,1460.00 L 1437.50,1228.00 L 1431.00,1221.50 L 1225.50,1224.00 L 1225.50,1685.00 L 1222.50,1684.00 L 979.50,1201.00 L 981.00,411.50 L 1524.00,411.50 L 1579.00,418.50 L 1644.00,437.50 L 1700.00,462.50 L 1774.00,515.50 L 1823.50,569.00 L 1852.50,613.00 L 1872.50,654.00 L 1883.50,683.00 L 1897.50,739.00 L 1902.50,786.00 L 1902.50,827.00 L 1897.50,871.00 L 1888.50,910.00 L 1878.50,942.00 L 1855.50,993.00 L 1839.50,1020.00 L 1807.50,1063.00 L 1774.00,1097.50 L 1735.00,1129.50 L 1672.50,1166.00 L 1950.50,1625.00 L 2021.50,1744.00 L 2026.50,1753.00 L 2025.00,1755.50 Z M 1497.50,981.00 L 1515.00,979.50 L 1544.00,971.50 L 1591.00,947.50 L 1630.50,910.00 L 1652.50,873.00 L 1665.50,826.00 L 1666.50,783.00 L 1653.50,730.00 L 1629.50,689.00 L 1604.00,662.50 L 1576.00,643.50 L 1553.00,632.50 L 1512.00,621.50 L 1226.00,620.50 L 1225.50,980.00 L 1497.50,981.00 Z" />
  </g>
</svg>

<?xml version="1.0" encoding="UTF-8" standalone="no"?>
<svg
   width="2019"
   height="1755.92"
   viewBox="0 0 2019 1755.92"
   version="1.1"
   id="svg1"
   xmlns="http://www.w3.org/2000/svg"
   xmlns:svg="http://www.w3.org/2000/svg">
  <defs
     id="defs1" />
  <g
     id="logo"
     fill="#333333"
     fill-rule="evenodd"
     transform="translate(-7.5,-0.58000183)">
    <circle
       id="dot"
       cx="414.16"
       cy="174.35001"
       r="173.77" />
    <path
       id="lambda"
       d="m 258,1756.5 -249,-1 -1.5,-4.5 225,-411 257,-479 -108,-223 -9,-13 -15.5,-13.5 -31,-10 -264.5,-1.5 -1,-187 2.5,-2.5 393,2 45,14 29,16 22,18 22.5,24.5 21,30 14,27 109,233 144,294 252,505 92,178 -1.5,3.5 H 926 L 923.5,1753 608,1103.5 Z" />
    <path
       id="R"
       d="m 2025,1755.5 h -274 l -178.5,-295.5 -135,-232 -6.5,-6.5 -205.5,2.5 v 461 l -3,-1 -243,-483 1.5,-789.5 h 543 l 55,7 65,19 56,25 74,53 49.5,53.5 29,44 20,41 11,29 14,56 5,47 v 41 l -5,44 -9,39 -10,32 -23,51 -16,27 -32,43 -33.5,34.5 -39,32 -62.5,36.5 278,459 71,119 5,9 z M 1497.5,981 l 17.5,-1.5 29,-8 47,-24 39.5,-37.5 22,-37 13,-47 1,-43 -13,-53 -24,-41 -25.5,-26.5 -28,-19 -23,-11 -41,-11 -286,-1 -0.5,359.5 z" />
  </g>
</svg>
